packages/icons/svg/24/NotificationOff.svg

<svg width="24" height="24" viewBox="0 0 24 24" fill="none" xmlns="http://www.w3.org/2000/svg">
<path fill-rule="evenodd" clip-rule="evenodd" d="M12 3C8.68632 3 6.00003 5.68629 6.00003 9V11.8439L4.44761 16.6952C4.35029 16.9994 4.40406 17.3317 4.59233 17.5896C4.78059 17.8475 5.08071 18 5.40003 18H18.6C18.9194 18 19.2195 17.8475 19.4077 17.5896C19.596 17.3317 19.6498 16.9994 19.5525 16.6952L18 11.8439V9C18 5.68629 15.3137 3 12 3ZM8.00003 9C8.00003 6.79086 9.79089 5 12 5C14.2092 5 16 6.79086 16 9V12C16 12.1034 16.0161 12.2063 16.0476 12.3048L17.2301 16H6.76998L7.95246 12.3048C7.98398 12.2063 8.00003 12.1034 8.00003 12V9Z" fill="#858585"/>
<path d="M9.17078 19C9.58261 20.1652 10.6939 21 12.0001 21C13.3063 21 14.4175 20.1652 14.8294 19H9.17078Z" fill="#858585"/>
</svg>

<svg width="24" height="24" fill="none" xmlns="http://www.w3.org/2000/svg" viewBox="0 0 24 24"><path fill-rule="evenodd" clip-rule="evenodd" d="M12 3a6 6 0 00-6 6v2.844l-1.552 4.851A1 1 0 005.4 18h13.2a1 1 0 00.952-1.305L18 11.844V9a6 6 0 00-6-6zM8 9a4 4 0 118 0v3c0 .103.016.206.048.305L17.23 16H6.77l1.182-3.695A1 1 0 008 12V9z" fill="currentColor"></path><path d="M9.17 19a3.001 3.001 0 005.66 0H9.17z" fill="currentColor"></path></svg>
